X:99
T:Jupiter in the Clouds. ThoH.099
Q:1/2=70
M:C
L:1/8
B:Thompson's Compleat Collection of 120 Favourite Hornpipes.
Z:Village Music Project, Simon Wilson 2016
O:England.
K:Bb
Bc|d2e2f2F2|G>BA>cB2dF|G2eGA2fe|dcBAB2dF|GceB Agfe|
dcB2zfga|bB(ba) (ag)(gf)|(f=e)(ed) (dc)(cB)|AcfAG2=e2|f2F4:|
|:FG|A2B2c2d2|egfed2b2|a2g2bag^f|g2f4ed|e2c2edc=B|
c2B4AG|A2f2G2=e2|f2e4dc|dfba gfed|cBAGF2Bc|d2e2f2F2|
GBAcB2dF|G2eGA2fe|dcBAB2dF|GceB Agfe|dfga bB(ba)|
(ag)(gf) (fe)(ed)|(dc)(cB) Agfe|d2cBF2A2|B6:|

